Sources/FrostedUI/Resources/Icons.xcassets/starHalf20.imageset/star-half-20.svg

<svg width="20" height="20" viewBox="0 0 20 20" fill="none" xmlns="http://www.w3.org/2000/svg" data-fui-icon="true">
  <path
    fill-rule="evenodd"
    clip-rule="evenodd"
    d="M18.8074 7.07195C18.6414 6.55895 18.2054 6.19694 17.6714 6.12794L13.1924 5.54095L11.2474 1.48995C11.0144 1.00795 10.5364 0.707947 10.0004 0.707947C9.46444 0.707947 8.98644 1.00695 8.75344 1.48995L6.80744 5.54195L2.32945 6.12794C1.79445 6.19795 1.35845 6.55895 1.19245 7.07195C1.02745 7.58395 1.16744 8.13095 1.55844 8.49895L4.83045 11.5849L4.00945 15.9909C3.91145 16.5179 4.11945 17.0419 4.55345 17.3579C4.79645 17.5349 5.08044 17.6249 5.36644 17.6249C5.59144 17.6249 5.81645 17.5689 6.02445 17.4569L9.99944 15.3149L13.9734 17.4569C14.4484 17.7129 15.0114 17.6749 15.4464 17.3579C15.8804 17.0419 16.0884 16.5179 15.9904 15.9899L15.1694 11.5839L18.4414 8.49895C18.8324 8.12995 18.9724 7.58295 18.8074 7.07195ZM14.0904 10.5389C13.7484 10.8629 13.5954 11.3319 13.6814 11.7939L14.4694 16.0209L10.6564 13.9659C10.4514 13.8549 10.2254 13.7999 10.0004 13.7999V2.35995L11.8694 6.25195C12.0724 6.67295 12.4714 6.95995 12.9354 7.02195L17.2264 7.58395L14.0904 10.5399V10.5389Z"
    fill="currentColor"
  />
</svg>

<svg xmlns="http://www.w3.org/2000/svg" width="20" height="20" fill="none" data-fui-icon="true" viewBox="0 0 20 20"><path fill="currentColor" fill-rule="evenodd" d="M18.807 7.072a1.37 1.37 0 0 0-1.136-.944l-4.479-.587-1.945-4.051A1.38 1.38 0 0 0 10 .708c-.536 0-1.014.299-1.247.782L6.807 5.542l-4.478.586a1.37 1.37 0 0 0-1.137.944 1.37 1.37 0 0 0 .366 1.427l3.272 3.086-.82 4.406c-.099.527.11 1.05.543 1.367a1.38 1.38 0 0 0 1.471.099L10 15.315l3.974 2.142a1.37 1.37 0 0 0 1.473-.1c.434-.315.642-.84.544-1.367l-.82-4.406 3.271-3.085c.391-.37.531-.916.366-1.427m-4.717 3.467a1.38 1.38 0 0 0-.409 1.255l.788 4.227-3.813-2.055A1.4 1.4 0 0 0 10 13.8V2.36l1.87 3.892c.202.421.601.708 1.065.77l4.291.562z" clip-rule="evenodd"/></svg>
